X: 61
T: I Sing for the Animals
C: Teton Sioux band 1911-1914
N: Derived from sioux061.krn
O: South Dakota, U.S.A.
N: Teton Sioux Music by Frances Densmore, 1918
Z: transcribed to **kern format by Craig Sapp
L: 1/8
M: 3/4
Q: 1/4=58
K: Gb clef=bass
%%linebreak <none>
D [I:setbarnb 1]| 
D D/ B,/B,2D D// D3// | 
B,> B,B,4 ||  
[M:2/4]B,3D ||  
[M:3/4]D D/ B,/B,2D D// D3// | 
B,> B,B,3B, ||  
[M:2/4]A, A, A,/> A,/ A, | 
G, E, G, G, ||  
[M:3/4]E,> E,E,3E, | 
E, E,/ E,/D,2D,/> D,/ D, ||  
[M:2/4]B,,> B,,B,,2 | 
B,,3D ||  
[M:3/4]D DB,2D D// D3// | 
B,> B,B,3B, ||  
[M:2/4]A, A, A,/> A,/ A, | 
G, E, G, G, ||  
[M:3/4]E,> E,E,4 ||  
[M:2/4]E, E, D, D,// D,// D,/ ||  
[M:3/4]B,,> B,,B,,4 |]  



